X:587
T:Reel 587
M:4/4
K:Amix
L:1/8
CD|EA,A,F, G,2DC|B,A,G,A, B,CDB,|A,E, (3E,F,G, A,B,CA,|B,EEF GEDB,|E,A,A,B, CB,CD|E2CE DB,A,2|E,A,A,G, B,A,B,D|GEDB, A,2|CD|EAAG AcBA|GEEF GABG|EAAG A2GA|BAcB A2GF|EAAG AcBA|GDEF GABA|GEB,D GEFA|GEDB, A,2|
